src/assets/icons/heading-2.svg

<svg fill="none" viewBox="0 0 24 24"><path stroke="currentColor" stroke-linecap="round" stroke-linejoin="round" stroke-width="1.5" d="M4 12h8M4 6v12M12 6v12M16 11c0-.6.4-1 1-1h2c.6 0 1 .4 1 1v1c0 .6-.4 1-1 1h-2c-.6 0-1 .4-1 1v2c0 .6.4 1 1 1h3"/></svg>

<svg width="24" height="24" viewBox="0 0 24 24" fill="none" xmlns="http://www.w3.org/2000/svg">
<path d="M4 12H12" stroke="#314158" stroke-width="1.5" stroke-linecap="round" stroke-linejoin="round"/>
<path d="M4 6V18" stroke="#314158" stroke-width="1.5" stroke-linecap="round" stroke-linejoin="round"/>
<path d="M12 6V18" stroke="#314158" stroke-width="1.5" stroke-linecap="round" stroke-linejoin="round"/>
<path d="M16 11C16 10.4 16.4 10 17 10H19C19.6 10 20 10.4 20 11V12C20 12.6 19.6 13 19 13H17C16.4 13 16 13.4 16 14V16C16 16.6 16.4 17 17 17H20" stroke="#314158" stroke-width="1.5" stroke-linecap="round" stroke-linejoin="round"/>
</svg>
